!!!COM:	la Rue, Pierre de
!!!CDT:	~1452///-1518/11/20
!!!OPR:	Missa O salutaris hostia
!!!ONM:	5
!!!OTL:	Agnus Dei
!!!AGN:	Mass; Agnus Dei
!!!SCT:	Rue1022e
!!!SCA:	Rue1022e
!!!voices-OPR:	4
!!!voices:	4
**kern	**kern	**kern	**kern
*Ivox	*Ivox	*Ivox	*Ivox
*I"Bassus	*I"Tenor	*I"Contra	*I"Discantus
*I'B	*I'T	*I'C	*I'D
*staff4	*staff3	*staff2	*staff1
*>[A,B,C]	*>[A,B,C]	*>[A,B,C]	*>[A,B,C]
*>A	*>A	*>A	*>A
*clefF4	*clefGv2	*clefGv2	*clefG2
*k[b-]	*k[b-]	*k[b-]	*k[b-]
*M3/1	*M3/1	*M3/1	*M3/1
*met(O)	*met(O)	*met(O)	*met(O)
!!section: Agnus Dei I
!!!OMD: Agnus Dei I
=1-	=1-	=1-	=1-
!	!LO:TX:X=-40:Z=8:t=4-ex-1 canon at the lower 5th/upper 8ve/upper 4th (1/5/6 breves)	!	!
0.r	1G	0.r	0.r
.	2G/	.	.
.	1A	.	.
.	4G/	.	.
.	4F/	.	.
=2	=2	=2	=2
1C	2E/	0.r	0.r
.	1G	.	.
2C/	.	.	.
1D	2D/	.	.
.	2F/	.	.
4C/	2G/	.	.
4BB-/	.	.	.
=3	=3	=3	=3
2AA/	2.A/	0.r	0.r
1C	.	.	.
.	4B-\	.	.
.	2c\	.	.
2GG/	1d	.	.
2BB-/	.	.	.
2C/	4c\	.	.
.	4B-\	.	.
=4	=4	=4	=4
2.D\	1A	0.r	0.r
4E\	.	.	.
2F\	1r	.	.
1G	.	.	.
.	2r	.	.
4F\	2A/	.	.
4E\	.	.	.
=5	=5	=5	=5
1D	2B-\	0.r	0.r
.	1d	.	.
1r	.	.	.
.	4c\	.	.
.	4B-\	.	.
2r	1A	.	.
2D\	.	.	.
=6	=6	=6	=6
2E\	2.G/	0.r	1g
1G	.	.	.
.	4A/	.	.
.	2B-\	.	2g/
4F\	1c	.	1a
4E\	.	.	.
1D	.	.	.
.	2Bni\	.	4g/
.	.	.	4f/
=7	=7	=7	=7
2.C/	1c	1c	2e/
.	.	.	1g
4D\	.	.	.
2E\	1r	2c\	.
1F	.	1d	2d/
.	1r	.	2f/
2E\	.	4c\	2g/
.	.	4B-\	.
=8	=8	=8	=8
1F	0.r	2A/	2.a/
.	.	1c	.
.	.	.	4b-\
1r	.	.	2cc\
.	.	2G/	1dd
1r	.	2B-\	.
.	.	2c\	4cc\
.	.	.	4b-\
=9	=9	=9	=9
0.r	0.r	2.d\	1a
.	.	4e\	.
.	.	2f\	1r
.	.	1g	.
.	.	.	2r
.	.	4f\	2a/
.	.	4e\	.
=10	=10	=10	=10
0.r	0.r	1d	2b-\
.	.	.	1dd
.	.	1r	.
.	.	.	4cc\
.	.	.	4b-\
.	.	2r	1a
.	.	2d\	.
=11	=11	=11	=11
0.r	1r	2e\	2.g/
.	.	1g	.
.	.	.	4a/
.	1r	.	2b-\
.	.	4f\	1cc
.	.	4e\	.
.	1G	1d	.
.	.	.	2bni\
=12	=12	=12	=12
1r	2A/	2.c\	1cc
.	1A	.	.
.	.	4d\	.
1r	.	2e\	1r
.	2F/	1f	.
1C	2G/	.	1r
.	2A/	2e\	.
=13	=13	=13	=13
2D\	1D	1f	0.r
1D	.	.	.
.	2r	1r	.
2BB-/	2D/	.	.
2C/	2E/	1r	.
2D\	2F/	.	.
=14	=14	=14	=14
1GG	2G/	0.r	0.r
.	4F/	.	.
.	4E/	.	.
2r	1D	.	.
2GG/	.	.	.
2AA/	2r	.	.
2BB-/	2D/	.	.
=15	=15	=15	=15
2C/	2E/	0.r	0.r
4BB-/	2F/	.	.
4AA/	.	.	.
1GG	2G/	.	.
.	2E/	.	.
2r	1D	.	.
2GG/	.	.	.
=16	=16	=16	=16
2AA/	2.C/	0.r	1r
2BB-/	.	.	.
.	4D/	.	.
2C/	4E/	.	1r
.	4C/	.	.
2AA/	1F	.	.
1GG	.	.	1g
.	2E/	.	.
=17	=17	=17	=17
2.FF/	0F	1r	2a/
.	.	.	1a
4GG/	.	.	.
4AA/	.	1r	.
4FF/	.	.	.
1BB-	.	.	2f/
.	1r	1c	2g/
2AA/	.	.	2a/
=18	=18	=18	=18
0BB-	0.r	2d\	1d
.	.	1d	.
.	.	.	2r
.	.	2B-\	2d/
1r	.	2c\	2e/
.	.	2d\	2f/
=19	=19	=19	=19
0.r	0.r	1G	2g/
.	.	.	4f/
.	.	.	4e/
.	.	2r	1d
.	.	2G/	.
.	.	2A/	2r
.	.	2B-\	2d/
=20	=20	=20	=20
0.r	0.r	2c\	2e/
.	.	4B-\	2f/
.	.	4A/	.
.	.	1G	2g/
.	.	.	2e/
.	.	2r	1d
.	.	2G/	.
=21	=21	=21	=21
0.r	0.r	2A/	2.c/
.	.	2B-\	.
.	.	.	4d/
.	.	2c\	4e/
.	.	.	4c/
.	.	2A/	1f
.	.	1G	.
.	.	.	2e/
=22	=22	=22	=22
0.r	2F/	2.F/	0f
.	1F	.	.
.	.	4G/	.
.	.	4A/	.
.	.	4F/	.
.	2D/	1B-	.
.	1E-i	.	1r
.	.	2A/	.
=23	=23	=23	=23
2BB-/	2.D/	0B-	0.r
1BB-	.	.	.
.	4E-i/	.	.
.	2F/	.	.
2GG/	2G/	.	.
1AA	4F#i/	1r	.
.	4Eni/	.	.
.	2F#i/	.	.
=24	=24	=24	=24
2.GG/	1.G	0.r	0.r
4AA/	.	.	.
2BB-/	.	.	.
2C/	2E/	.	.
4BB-/	2F/	.	.
4AA/	.	.	.
2BB-/	2D/	.	.
=25	=25	=25	=25
1.C	4C/	0.r	0.r
.	4D/	.	.
.	4E/	.	.
.	4F/	.	.
.	2G/	.	.
2AA/	2A/	.	.
2BB-/	4G/	.	.
.	4F/	.	.
2GG/	2G/	.	.
=26	=26	=26	=26
4FF/	1.A	0.r	0.r
4GG/	.	.	.
4AA/	.	.	.
4BB-/	.	.	.
2C/	.	.	.
2D\	2F/	.	.
4C/	1G	.	.
4BB-/	.	.	.
2C/	.	.	.
=27	=27	=27	=27
1.D	2.F/	0.r	2f/
.	.	.	1f
.	4G/	.	.
.	2A/	.	.
2BB-/	2B-\	.	2d/
1C	1A	.	1e-i
=28	=28	=28	=28
2.BB-/	1D	2B-\	2.d/
.	.	1B-	.
4C/	.	.	4e-i/
2D\	1r	.	2f/
2E-i\	.	2G/	2g/
1D	1r	1A	4f#i/
.	.	.	4eni/
.	.	.	2f#i/
=29	=29	=29	=29
1GG	1r	2.G/	1.g
.	.	4A/	.
1r	2r	2B-\	.
.	2c\	2c\	2e/
1r	1d	4B-\	2f/
.	.	4A/	.
.	.	2B-\	2d/
=30	=30	=30	=30
1r	2A/	1.c	4c/
.	.	.	4d/
.	1c	.	4e/
.	.	.	4f/
2r	.	.	2g/
2F\	2c\	2A/	2a/
1G	1B-	2B-\	4g/
.	.	.	4f/
.	.	2G/	2g/
=31	=31	=31	=31
2D\	0A	4F/	1.a
.	.	4G/	.
1F	.	4A/	.
.	.	4B-\	.
.	.	2c\	.
2F\	.	2d\	2f/
1E	2r	4c#i\	1g
.	.	4Bni\	.
.	2G/	2c#i\	.
=32	=32	=32	=32
[0.Dl	2A/	[0.dl	[0.fl
.	1B-	.	.
.	2A/	.	.
.	2.F/	.	.
.	4G/	.	.
=33	=33	=33	=33
0.D]	0.Al	0.d]	0.f]
!!LO:LB:i:g=z
=34||	=34||	=34||	=34||
*>B	*>B	*>B	*>B
*clefF4	*clefGv2	*clefGv2	*clefG2
*k[b-]	*k[b-]	*k[b-]	*k[b-]
*M2/1	*M2/1	*M2/1	*M2/1
*met(C2)	*met(C2)	*met(C2)	*met(C2)
!!section: Agnus Dei II
!!!OMD: Agnus Dei II
!	!	!	!LO:TX:X=-40:Z=8:t=4-ex-1 canon at the lower 5th/8ve/12th (2/8/10 breves)
0r	0r	0r	1a
.	.	.	2a/
.	.	.	[2f/
=35.	=35.	=35.	=35.
0r	0r	0r	2f/]
.	.	.	4e/
.	.	.	4d/
.	.	.	1e
=36	=36	=36	=36
0r	0r	1d	2.d/
.	.	.	4e/
.	.	2d\	2f/
.	.	[2B-\	2g/
=37.	=37.	=37.	=37.
0r	0r	2B-\]	2d/
.	.	4A/	1g
.	.	4G/	.
.	.	1A	.
.	.	.	2f#i/
=38	=38	=38	=38
0r	0r	2.G/	1g
.	.	4A/	.
.	.	2B-\	2r
.	.	2c\	2g/
=39.	=39.	=39.	=39.
0r	0r	2G/	2g/
.	.	1c	2e/
.	.	.	1f
.	.	2B-\	.
=40	=40	=40	=40
0r	0r	1c	2.e/
.	.	.	4f/
.	.	2r	2g/
.	.	2c\	2a/
=41.	=41.	=41.	=41.
0r	0r	2c\	2e/
.	.	2A/	1a
.	.	1B-	.
.	.	.	2g/
=42	=42	=42	=42
0r	1A	2.A/	2a/
.	.	.	2.cc\
.	.	4B-\	.
.	2A/	2c\	.
.	.	.	4b-\
.	[2F/	2d\	[2a/
=43.	=43.	=43.	=43.
0r	2F/]	2A/	2a/]
.	4E/	1d	4g/
.	4D/	.	4f/
.	1E	.	1g
.	.	2c#i\	.
=44	=44	=44	=44
1D	2.D/	2d\	1f
.	.	2.f\	.
.	4E/	.	.
2D\	2F/	.	1r
.	.	4e\	.
[2BB-/	2G/	[2d\	.
=45.	=45.	=45.	=45.
2BB-/]	2D/	2d\]	0r
4AA/	1G	4c\	.
4GG/	.	4B-\	.
1AA	.	1c	.
.	2F#i/	.	.
=46	=46	=46	=46
2.GG/	1G	1B-	0r
4AA/	.	.	.
2BB-/	2r	1r	.
2C/	2G/	.	.
=47.	=47.	=47.	=47.
2GG/	2G/	0r	0r
1C	2E/	.	.
.	1F	.	.
2BB-/	.	.	.
=48	=48	=48	=48
1C	2.E/	0r	0r
.	4F/	.	.
2r	2G/	.	.
2C/	2A/	.	.
=49.	=49.	=49.	=49.
2C/	2E/	0r	0r
2AA/	1A	.	.
1BB-	.	.	.
.	2G/	.	.
=50	=50	=50	=50
2.AA/	2A/	0r	0r
.	2.c\	.	.
4BB-/	.	.	.
2C/	.	.	.
.	4B-\	.	.
2D\	[2A/	.	.
=51.	=51.	=51.	=51.
2AA/	2A/]	0r	2r
1D	4G/	.	1f
.	4F/	.	.
.	1G	.	.
2C/	.	.	2e/
=52	=52	=52	=52
2D\	1F	0r	2f/
2.F\	.	.	2.a/
.	1r	.	.
4E\	.	.	4g/
[2D\	.	.	[2f/
=53.	=53.	=53.	=53.
2D\]	0r	2r	2f/]
4C/	.	1B-	4e-i/
4BB-/	.	.	4d/
1C	.	.	1e-i
.	.	2A/	.
=54	=54	=54	=54
1BB-	0r	2B-\	0d
.	.	2.d\	.
1r	.	.	.
.	.	4c\	.
.	.	[2B-\	.
=55.	=55.	=55.	=55.
0r	0r	2B-\]	1r
.	.	4A/	.
.	.	4G/	.
.	.	1A	1a
=56	=56	=56	=56
0r	0r	0G	2b-\
.	.	.	2b-\
.	.	.	2b-\
.	.	.	[2g/
=57.	=57.	=57.	=57.
0r	0r	1r	2g/]
.	.	.	4f/
.	.	.	4e/
.	.	1d	1d
=58	=58	=58	=58
0r	0r	2e\	0c
.	.	2e\	.
.	.	2e\	.
.	.	[2c\	.
=59.	=59.	=59.	=59.
0r	2r	2c\]	0r
.	1F	4B-\	.
.	.	4A/	.
.	.	1G	.
.	2E/	.	.
=60	=60	=60	=60
0r	2F/	0F	0r
.	2.A/	.	.
.	4G/	.	.
.	[2F/	.	.
=61.	=61.	=61.	=61.
2r	2F/]	0r	0r
1BB-	4E-i/	.	.
.	4D/	.	.
.	1E-i	.	.
2AA/	.	.	.
=62	=62	=62	=62
2BB-/	0D	0r	0r
2.D\	.	.	.
4C/	.	.	.
[2BB-/	.	.	.
=63.	=63.	=63.	=63.
2BB-/]	1r	0r	0r
4AA/	.	.	.
4GG/	.	.	.
1AA	1A	.	.
=64	=64	=64	=64
0GG	2B-\	0r	0g
.	2B-\	.	.
.	2B-\	.	.
.	[2G/	.	.
=65.	=65.	=65.	=65.
1r	2G/]	0r	1g
.	4F/	.	.
.	4E/	.	.
1D	1D	.	1f
=66	=66	=66	=66
2E\	0C	0c	1g
2E\	.	.	.
2E\	.	.	[1g
[2C/	.	.	.
=67.	=67.	=67.	=67.
2C/]	0r	1c	2g/]
4BB-/	.	.	2a/
4AA/	.	.	.
1GG	.	1B-	1b-
=68	=68	=68	=68
0FF	0r	1c	2.a/
.	.	.	4b-\
.	.	[1c	4cc\
.	.	.	4a/
.	.	.	[2cc\
=69.	=69.	=69.	=69.
0r	0r	2c\]	2cc\]
.	.	2d\	4b-\
.	.	.	4a/
.	.	1e	1g
=70	=70	=70	=70
0r	0r	2.d\	2.f/
.	.	4e\	4g/
.	.	4f\	4a/
.	.	4d\	4f/
.	.	[2f\	[2a/
=71.	=71.	=71.	=71.
0r	0r	2f\]	2a/]
.	.	4e\	4g/
.	.	4d\	4f/
.	.	1c	1e
=72	=72	=72	=72
0r	0G	2.B-\	0d
.	.	4c\	.
.	.	4d\	.
.	.	4B-\	.
.	.	[2d\	.
=73.	=73.	=73.	=73.
0r	1G	2d\]	0r
.	.	4c\	.
.	.	4B-\	.
.	1F	1A	.
=74	=74	=74	=74
0C	1G	0G	0r
.	[1G	.	.
=75.	=75.	=75.	=75.
1C	2G/]	0r	0r
.	2A/	.	.
1BB-	1B-	.	.
=76	=76	=76	=76
1C	2.A/	0r	0r
.	4B-\	.	.
[1C	4c\	.	.
.	4A/	.	.
.	[2c\	.	.
=77.	=77.	=77.	=77.
2C/]	2c\]	0r	0r
2D\	4B-\	.	.
.	4A/	.	.
1E	1G	.	.
=78	=78	=78	=78
2.D\	2.F/	0r	0r
4E\	4G/	.	.
4F\	4A/	.	.
4D\	4F/	.	.
[2F\	[2A/	.	.
=79.	=79.	=79.	=79.
2F\]	2A/]	0r	1r
4E\	4G/	.	.
4D\	4F/	.	.
1C	1E	.	1c
=80	=80	=80	=80
2.BB-/	0D	0r	1d
4C/	.	.	.
4D\	.	.	2d/
4BB-/	.	.	.
[2D\	.	.	[2f/
=81.	=81.	=81.	=81.
2D\]	0r	1r	2f/]
4C/	.	.	2g/
4BB-/	.	.	.
1AA	.	1F	1a
=82	=82	=82	=82
0GG	0r	1G	2d/
.	.	.	2dd\
.	.	2G/	2b-\
.	.	[2B-\	[2dd\
=83.	=83.	=83.	=83.
0r	0r	2B-\]	2dd\]
.	.	2c\	4cc\
.	.	.	4b-\
.	.	1d	1a
=84	=84	=84	=84
0r	0r	2G/	2g/
.	.	2g\	4e/
.	.	.	4f/
.	.	2e\	4g/
.	.	.	4a/
.	.	[2g\	4b-\
.	.	.	4cc\
=85.	=85.	=85.	=85.
0r	0r	2g\]	2dd\
.	.	4f\	2.cc\
.	.	4e\	.
.	.	1d	.
.	.	.	4bni\
.	.	.	2bni\
=86	=86	=86	=86
0r	0r	2c\	1cc
.	.	4A/	.
.	.	4B-\	.
.	.	4c\	2cc\
.	.	4d\	.
.	.	4e\	[2a/
.	.	4f\	.
=87.	=87.	=87.	=87.
0r	1r	2g\	2a/]
.	.	2.f\	4g/
.	.	.	4f/
.	1C	.	1g
.	.	4e\	.
.	.	2e\	.
=88	=88	=88	=88
0r	1D	1f	2f/
.	.	.	2d/
.	2D/	2f\	2.f/
.	[2F/	[2d\	.
.	.	.	4g/
=89.	=89.	=89.	=89.
1r	2F/]	2d\]	1a
.	2G/	4c\	.
.	.	4B-\	.
1FF	1A	1c	2r
.	.	.	2a/
=90	=90	=90	=90
1GG	2D/	2B-\	2b-\
.	2d\	2G/	2.dd\
2GG/	2B-\	2.B-\	.
.	.	.	4cc\
[2BB-/	[2d\	.	[2b-\
.	.	4c\	.
=91.	=91.	=91.	=91.
2BB-/]	2d\]	1d	2b-\]
2C/	4c\	.	4a/
.	4B-\	.	4g/
1D	1A	2r	2f#i/
.	.	[2d\l	4g/
.	.	.	4f#i/
=92	=92	=92	=92
0GGl	0Gl	0d]	0gl
!!LO:LB:i:g=z
=93||	=93||	=93||	=93||
*>C	*>C	*>C	*>C
*clefF4	*clefGv2	*clefGv2	*clefG2
*k[b-]	*k[b-]	*k[b-]	*k[b-]
*M3/1	*M3/1	*M3/1	*M3/1
*met(C3)	*met(C3)	*met(C3)	*met(C3)
!!section: Agnus Dei III
!!!OMD: Agnus Dei III
!	!LO:TX:X=-40:Z=8:t=4-ex-1 canon at the lower 5th/upper 8ve/upper 4th (2/6/8 breves)	!	!
0.r	0D	0.r	0.r
.	1D	.	.
=94	=94	=94	=94
0.r	1E	0.r	0.r
.	1.F	.	.
.	2G/	.	.
=95	=95	=95	=95
0GG	0G	0.r	0.r
1GG	1E	.	.
=96	=96	=96	=96
1AA	1F	0.r	0.r
1.BB-	1.G	.	.
2C/	2A/	.	.
=97	=97	=97	=97
0C	0A	0.r	0.r
1AA	1F	.	.
=98	=98	=98	=98
1BB-	1G	0.r	0.r
1.C	1.E	.	.
2D\	2D/	.	.
=99	=99	=99	=99
0D	0.D	0.r	0d
1BB-	.	.	1d
=100	=100	=100	=100
1C	0.r	0.r	1e
1.AA	.	.	1.f
2GG/	.	.	2g/
=101	=101	=101	=101
0.GG	0.r	0G	0g
.	.	1G	1e
=102	=102	=102	=102
0.r	0.r	1A	1f
.	.	1.B-	1.g
.	.	2c\	2a/
=103	=103	=103	=103
0.r	0.r	0c	0a
.	.	1A	1f
=104	=104	=104	=104
0.r	1r	1B-	1g
.	1r	1.c	1.e
.	1A	.	.
.	.	2d\	2d/
=105	=105	=105	=105
0.r	1B-	0d	0.d
.	0G	.	.
.	.	1B-	.
=106	=106	=106	=106
1r	0A	1c	0.r
1r	.	1.A	.
1D	1r	.	.
.	.	2G/	.
=107	=107	=107	=107
1E	0.r	0.G	0.r
0C	.	.	.
=108	=108	=108	=108
0D	1A	0.r	0.r
.	1A	.	.
1r	1A	.	.
=109	=109	=109	=109
0.r	1.D	0.r	0.r
.	2E/	.	.
.	2F/	.	.
.	2D/	.	.
=110	=110	=110	=110
1D	0A	0.r	1r
1D	.	.	1r
1D	1A	.	1a
=111	=111	=111	=111
1.GG	1G	0.r	1b-
.	0B-	.	0g
2AA/	.	.	.
2BB-/	.	.	.
2GG/	.	.	.
=112	=112	=112	=112
0D	0A	1r	0a
.	.	1r	.
1D	1r	1d	1r
=113	=113	=113	=113
1C	0.r	1e	0.r
0E	.	0c	.
=114	=114	=114	=114
0D	1A	0d	1a
.	1A	.	1a
1r	1c	1r	1a
=115	=115	=115	=115
0.r	0d	0.r	1.d
.	.	.	2e/
.	1d	.	2f/
.	.	.	2d/
=116	=116	=116	=116
1D	0A	1d	0a
1D	.	1d	.
1F	1A	1d	1a
=117	=117	=117	=117
0G	1B-	1.G	1g
.	0G	.	0b-
.	.	2A/	.
1G	.	2B-\	.
.	.	2G/	.
=118	=118	=118	=118
0D	0A	0d	0a
1D	1r	1d	1r
=119	=119	=119	=119
1E	0.r	1c	0.r
0C	.	0e	.
=120	=120	=120	=120
0D	1A	0d	1a
.	1A	.	1a
1r	1A	1r	1cc
=121	=121	=121	=121
0.r	1.D	0.r	0dd
.	2E/	.	.
.	2F/	.	1dd
.	2D/	.	.
=122	=122	=122	=122
1D	0A	1d	0a
1D	.	1d	.
1D	1A	1f	1a
=123	=123	=123	=123
1.GG	1G	0g	1b-
.	0B-	.	0g
2AA/	.	.	.
2BB-/	.	1g	.
2GG/	.	.	.
=124	=124	=124	=124
0D	0.A	0d	0a
1D	.	1d	1r
=125	=125	=125	=125
1C	0.r	1e	0.r
0E	.	0c	.
=126	=126	=126	=126
0.D	0.r	0d	1a
.	.	.	1a
.	.	1r	1a
=127	=127	=127	=127
0.r	0.r	0.r	1.d
.	.	.	2e/
.	.	.	2f/
.	.	.	2d/
=128	=128	=128	=128
0.r	0.r	1d	0a
.	.	1d	.
.	.	1d	1a
=129	=129	=129	=129
0.r	0.r	1.G	1g
.	.	.	0b-
.	.	2A/	.
.	.	2B-\	.
.	.	2G/	.
=130	=130	=130	=130
0.r	1.D	0d	0.a
.	2E/	.	.
.	2F/	1d	.
.	2G/	.	.
=131	=131	=131	=131
0.r	1.A	1c	0.r
.	.	0e	.
.	2B-\	.	.
.	2c\	.	.
.	2A/	.	.
=132	=132	=132	=132
1.GG	1.B-	0.d	0.r
2AA/	2A/	.	.
2BB-/	1G	.	.
2C/	.	.	.
=133	=133	=133	=133
1.D	1F	0.r	0.r
.	1r	.	.
2E\	.	.	.
2F\	1r	.	.
2D\	.	.	.
=134	=134	=134	=134
1.E-i	1.c	0.r	0.r
2D\	2B-\	.	.
1C	1A	.	.
=135	=135	=135	=135
1BB-	2G/	0.r	0.r
.	1G	.	.
1r	.	.	.
.	2F/	.	.
1r	1E	.	.
=136	=136	=136	=136
1.F	1D	0.r	1.d
.	1.d	.	.
2E\	.	.	2e/
1D	.	.	2f/
.	2B-\	.	2g/
=137	=137	=137	=137
2C/	2c\	0.r	1.a
1C	1A	.	.
2BB-/	2G/	.	2b-\
1AA	2E/	.	2cc\
.	2F#i/	.	2a/
=138	=138	=138	=138
1GG	0.G	1.G	1.b-
1.G	.	.	.
.	.	2A/	2a/
.	.	2B-\	1g
2E\	.	2c\	.
=139	=139	=139	=139
2F\	0.r	1.d	1f
1D	.	.	.
.	.	.	1r
2C/	.	2e\	.
2AA/	.	2f\	1r
2BB-/	.	2d\	.
=140	=140	=140	=140
0.C	0.r	1.e-i	1.cc
.	.	2d\	2b-\
.	.	1c	1a
=141	=141	=141	=141
0.r	1G	1B-	2g/
.	.	.	1g
.	2E/	1r	.
.	2F/	.	2f/
.	2G/	1r	1e
.	2A/	.	.
=142	=142	=142	=142
0.r	2.B-\	1.f	1d
.	4A/	.	.
.	2F/	.	1.dd
.	2G/	2e\	.
.	1D	1d	.
.	.	.	2b-\
=143	=143	=143	=143
1C	2r	2c\	2cc\
.	2E/	1c	1a
2AA/	2F/	.	.
2BB-/	2G/	2B-\	2g/
2C/	2A/	1A	2e/
2D\	2F/	.	2f/
=144	=144	=144	=144
2.E-i\	1.B-	[0.Gl	[0.gl
4D\	.	.	.
2BB-/	.	.	.
2C/	2A/	.	.
[1GGl	2G/	.	.
.	2F/	.	.
=145	=145	=145	=145
0.GG_	2E-i/	0.G_	0.g_
.	2D/	.	.
.	1E-i	.	.
.	1D	.	.
=146	=146	=146	=146
0.GG]	0.Dl	0.G]	0.g]
==	==	==	==
*-	*-	*-	*-
!!!RDF**kern: l=long note in original notation
!!!RDF**kern: i=editorial accidental
!!!ENC:	Chris Gage 04-15-2013
!!!END:	2013/07/28/
!!!EED:	Jesse Rodin
!!!EEV:	2013/08/02/
!!!ONB:	Translated from MusicXML and edited on 2013/08/02/ by Craig Sapp
!!muse2ps: T^@{OPR}^u^@{ONM}{. }@{OTL}^C^@{COM}^i2I150v85,85,85,150Q16c120
